X: 1
T: Yesh Lanu Tayish (#1)
O: Israel
Z: John Chambers <jc:trillian.mit.edu>
M: 2/4
L: 1/8
K: D
|: "A7".[A2EC] | .[A2EC] | .[AEC] .[AEC] | .[A2EC] :|\
| "A7"A4- | A4 || "D"A2 A>A | "A7"BA2G | "D"FF ED | "A7"A3z ||
|| "D"AA AA | "A7"BA2G | "D"FF "A7"EE | "D"D3z || "D"FA D2 | FA D2 | "G"B>B BB | "D"A3z ||
|| "D"dA A2 | "Em"GF E2 | "A7"DG FE | "D"A3z | "D"dA A2 | "Em"GF E2 | "A7"DG FE | "D"D3z :|

%%sep 1 1 500

